X: 1
T: H\aargal\aaten
O: trad. Sweden
R: hambo, polska
S: Fiddle Hell Online 2020-11-05
S: Fiddle Hell Online 2022-4-2 handout for Bronwyn Bird's Swedish Jam
S: Transcription from Peter Hedlund: Resonans
Z: 2022 John Chambers <jc:trillian.mit.edu>
S: From transcription by Matt Fichtenbaum, 10 staffs with no multiple endings.
M: 3/4
L: 1/8
%P: (AABABA CDCD)xN + A
K: Am
"^A"|: "Am"e2 (e>f) e>d | (d<c) c2 A>c | "E7"(c<B) (B>E) ^G>B |1,3 "Am"c>(TB A>B) c>d :|2,4 "Am"A2 "fine"A4 :|
"^B"|: "C"(c>d) e2 c>c | "G7"(d>e) f2 d>d | g2 (g>a) g>f |1 "C"(f>e) e4 :|2 (f>e) "E7"e4 |]
% %text Play A again
%%vskip 5pt
"^C"|: "Am"(AB/A/) ^G2 A2 | "E7"(Bc/B/) A2 B2 | "Am"(c>d) (c>B) c>d |1 "E7"(e>f) (e>d) c>B :|2 "C"e2 "(D7)"f2 ^f2 ||
"^D"[| "G7"(g>f) d2 (3(def) | "C"e>d c2 c>e | "E7"e>d B2 (3(Bcd) | "Am"c>B A2- A>a |
     | "Dm"a>f d2 (3(def) | "Am"e>c A2- A>c | "E7"(B<^G) (E>G) B>c | "Am"A2 "_d.C."A4 |]
